src/icons/editor/glyph/ColumnAddBeforeIcon.svg

<svg width="24" height="24" viewBox="0 0 24 24" fill="none" xmlns="http://www.w3.org/2000/svg">
<path fill-rule="evenodd" clip-rule="evenodd" d="M21 5C21 3.89543 20.1046 3 19 3H15C13.8954 3 13 3.89543 13 5V19C13 20.1046 13.8954 21 15 21H19C20.1046 21 21 20.1046 21 19V5ZM9 5H5V7H3V5C3 3.89543 3.89543 3 5 3H9C10.1046 3 11 3.89543 11 5V7H9V5ZM9 19V17H11V19C11 20.1046 10.1046 21 9 21H5C3.89543 21 3 20.1046 3 19V17H5V19H9ZM8 15V13H10V11H8L8 9L6 9V11L4 11V13H6V15H8Z" fill="currentColor"/>
</svg>

<svg xmlns="http://www.w3.org/2000/svg" width="24" height="24" fill="currentColor" viewBox="0 0 24 24">
  <path fill-rule="evenodd" d="M21 5a2 2 0 0 0-2-2h-4a2 2 0 0 0-2 2v14a2 2 0 0 0 2 2h4a2 2 0 0 0 2-2V5ZM9 5H5v2H3V5a2 2 0 0 1 2-2h4a2 2 0 0 1 2 2v2H9V5Zm0 14v-2h2v2a2 2 0 0 1-2 2H5a2 2 0 0 1-2-2v-2h2v2h4Zm-1-4v-2h2v-2H8V9H6v2H4v2h2v2h2Z" clip-rule="evenodd"/>
</svg>
